X: 32048
T: Peggy's Nettles
R: jig
M: 6/8
K: Amajor
a|:ecB ABA|cef ecA|~B3 fge|fge fga|
ecB ABA|cef ecA|~B3 fBf|ecB A2a:|
|:ecA cBA|~c3 cBA|GAB EFE|GAB agf|
ecA cBA|~c3 cBA|~B3 fBf|1 ecB A2a:|2 ecB Ace||
|:~a3 gfe|fae fec|~B3 fge|fge fge|
~a3 gfe|faf ecA|~B3 fBf|1 ecB Ace:|2 ecB A2a||

